img/games/domino.svg

<svg xmlns="http://www.w3.org/2000/svg" viewBox="0 0 512 512" style="enable-background:new 0 0 512 512" xml:space="preserve"><path class="st0" fill="#0E87DF" d="M376 23.9c-.2-8.5 7.5-16.1 16-15.9h96c8.5-.2 16.2 7.4 16 15.9-1.8 71.8 3.7 144.9-2.1 216.1 5.4 33.8.5 69.6 2.1 104 .2 8.5-7.5 16.1-15.9 16H280c-8.5.2-16.1-7.5-15.9-15.9 2.8-138.1-26-109.2 112-112.1-.1-69.4-.1-138.7-.1-208.1m16 .1v96h96V24h-96m0 112v96h96v-96h-96M280 248v96h96v-96h-96m112 0v96h96v-96h-96z"/><path class="st0" fill="#0E87DF" d="M413.2 32.2c22.6-3.3 25.7 31.1 2.8 31.8-19.1.1-21.8-28.5-2.8-31.8zM461.2 32.2c26.3-2.9 23.5 37.6-2.2 31-15.5-4.5-13.9-28.7 2.2-31zM9.8 48.7c2.7-5.6 9-9.1 15.2-8.7h207c8.1-.2 15.6 6.8 15.9 14.9-3 138.3 27 110.5-111.9 113.1v208c34.4 1.6 70.2-3.4 104 2.1 71.1-5.8 144.3-.2 216-2.1 6.7-.1 13.1 4.6 15.2 11 2.2 33.4.1 67.4.8 101 .2 11.7-11.6 17.6-22 16-69.8-1.9-140.9 3.7-210-2.1-71.1 5.8-144.3.2-216.1 2.1-8.4.2-16.1-7.4-15.9-15.9 1.6-34.5-3.4-70.3 2.1-104.1-3.9-73.5-3.9-150.5 0-224-5.4-32.1-.5-66.2-2.1-99 0-4.1-.4-8.5 1.8-12.3M24 56v96h96V56H24m112 0v96h96V56h-96M24 168v96h96v-96H24m0 112v96h96v-96H24m0 112v96h96v-96H24m112 0v96h96v-96h-96m112 0v96h96v-96h-96m112 0v96h96v-96h-96z"/><path class="st0" fill="#0E87DF" d="M45.2 64.2c26.4-3 23.6 37.6-2.1 30.9-15.5-4.5-14-28.5 2.1-30.9zM413.2 80.2c21.9-3.3 25.9 29.7 3.8 31.7-19.7 1.4-23.3-28.3-3.8-31.7zM461.2 80.2c24-3.2 24.9 33.7.8 31.6-17.9-2-18.6-28.7-.8-31.6zM181.2 88.2c22.6-3.3 25.7 31.1 2.8 31.7-19.1.2-21.7-28.4-2.8-31.7zM93.2 112.2c24.1-3.3 25 33.8.7 31.6-17.8-2.1-18.5-28.6-.7-31.6zM461.2 144.2c25.2-3.1 24.5 35.4-.6 31.4-16.7-3.2-16.3-28.8.6-31.4z"/><path class="st0" fill="#0E87DF" d="M437.2 168.2c23.3-3.3 25.3 32.5 1.7 31.7-18.5-1.1-20-28.6-1.7-31.7zM45.2 176.2c22.6-3.3 25.7 31.1 2.8 31.7-19.1.2-21.7-28.4-2.8-31.7z"/><path class="st0" fill="#0E87DF" d="M413.2 192.2c25.1-3 24.5 35.4-.6 31.4-16.7-3.1-16.3-28.9.6-31.4zM93.2 224.2c25.2-3.1 24.4 35.5-.7 31.4-16.6-3.2-16.2-28.9.7-31.4zM301.1 256.2c22.7-3.4 25.7 31.2 2.8 31.7-19 .1-21.6-28.4-2.8-31.7zM349.2 256.2c23.3-3.3 25.3 32.5 1.7 31.7-18.5-1.1-20-28.6-1.7-31.7zM461.2 256.2c24-3.3 24.9 33.8.8 31.6-17.9-2.1-18.6-28.6-.8-31.6z"/><path class="st0" fill="#0E87DF" d="M325.2 280.2c22.6-3.4 25.7 31.2 2.7 31.7-19.1.1-21.6-28.4-2.7-31.7zM437.3 280.2c24-3.2 24.9 33.7.8 31.6-18-2-18.7-28.7-.8-31.6z"/><path class="st0" fill="#0E87DF" d="M301.2 304.2c21.9-3.3 25.9 29.7 3.8 31.7-19.7 1.4-23.3-28.3-3.8-31.7zM349.1 304.2c21.9-3.4 26 29.7 3.9 31.7-19.6 1.4-23.4-28.2-3.9-31.7zM413.2 304.2c24-3.3 25 33.7.8 31.6-17.8-2.1-18.6-28.6-.8-31.6zM69.2 312.2C91 308.9 95 341.9 73 343.9c-19.7 1.4-23.3-28.3-3.8-31.7zM157.2 400.2c23.4-3.4 25.4 32.5 1.7 31.7-18.4-1.1-20-28.6-1.7-31.7zM205.2 400.2c25.7-3 24.1 36.4-1.3 31.2-16.2-3.8-15.2-28.7 1.3-31.2zM269.2 400.2c24.1-3.4 25 33.8.8 31.6-17.8-2.1-18.6-28.6-.8-31.6zM317.2 400.2c23.3-3.3 25.3 32.5 1.7 31.7-18.4-1.1-20-28.6-1.7-31.7zM381.2 400.2c23.3-3.4 25.4 32.5 1.8 31.7-18.5-1-20.2-28.5-1.8-31.7zM69.2 424.2c23.4-3.4 25.3 32.5 1.7 31.7-18.4-1.1-20-28.6-1.7-31.7z"/><path class="st0" fill="#0E87DF" d="M405.2 424.2c21.8-3.3 25.9 29.7 3.9 31.7-19.8 1.4-23.4-28.3-3.9-31.7zM157.2 448.2c22.6-3.4 25.7 31.2 2.8 31.7-19.1.1-21.7-28.4-2.8-31.7zM205.2 448.2c25.1-3.1 24.5 35.4-.6 31.4-16.7-3.2-16.3-28.8.6-31.4zM269.2 448.2c22.6-3.4 25.7 31.1 2.8 31.7-19.1.2-21.7-28.4-2.8-31.7zM317.2 448.2c23.4-3.4 25.3 32.5 1.7 31.7-18.4-1.1-20-28.6-1.7-31.7z"/><path class="st0" fill="#0E87DF" d="M429.2 448.2c21.9-3.3 25.9 29.8 3.8 31.7-19.7 1.3-23.3-28.3-3.8-31.7z"/></svg>

<?xml version="1.0" encoding="utf-8"?>
<!-- Generator: Adobe Illustrator 24.3.0, SVG Export Plug-In . SVG Version: 6.00 Build 0)  -->
<svg version="1.1" id="Слой_1" xmlns="http://www.w3.org/2000/svg" xmlns:xlink="http://www.w3.org/1999/xlink" x="0px" y="0px"
	 viewBox="0 0 512 512" style="enable-background:new 0 0 512 512;" xml:space="preserve">
<style type="text/css">
	.st0{fill:#0E87DF;}
</style>
<g id="_x23_000000ff">
	<path class="st0" d="M376,23.9c-0.2-8.5,7.5-16.1,16-15.9c32,0,64,0,96,0c8.5-0.2,16.2,7.4,16,15.9c-1.8,71.8,3.7,144.9-2.1,216.1
		c5.4,33.8,0.5,69.6,2.1,104c0.2,8.5-7.5,16.1-15.9,16c-69.4,0-138.8,0-208.1,0c-8.5,0.2-16.1-7.5-15.9-15.9
		c2.8-138.1-26-109.2,112-112.1C376,162.6,376,93.3,376,23.9 M392,24c0,32,0,64,0,96c32,0,64,0,96,0c0-32,0-64,0-96
		C456,24,424,24,392,24 M392,136c0,32,0,64,0,96c32,0,64,0,96,0c0-32,0-64,0-96C456,136,424,136,392,136 M280,248c0,32,0,64,0,96
		c32,0,64,0,96,0c0-32,0-64,0-96C344,248,312,248,280,248 M392,248c0,32,0,64,0,96c32,0,64,0,96,0c0-32,0-64,0-96
		C456,248,424,248,392,248z"/>
	<path class="st0" d="M413.2,32.2c22.6-3.3,25.7,31.1,2.8,31.8C396.9,64.1,394.2,35.5,413.2,32.2z"/>
	<path class="st0" d="M461.2,32.2c26.3-2.9,23.5,37.6-2.2,31C443.5,58.7,445.1,34.5,461.2,32.2z"/>
	<path class="st0" d="M9.8,48.7c2.7-5.6,9-9.1,15.2-8.7c69,0,138,0,207,0c8.1-0.2,15.6,6.8,15.9,14.9c-3,138.3,27,110.5-111.9,113.1
		c0,69.3,0,138.7,0,208c34.4,1.6,70.2-3.4,104,2.1c71.1-5.8,144.3-0.2,216-2.1c6.7-0.1,13.1,4.6,15.2,11c2.2,33.4,0.1,67.4,0.8,101
		c0.2,11.7-11.6,17.6-22,16c-69.8-1.9-140.9,3.7-210-2.1c-71.1,5.8-144.3,0.2-216.1,2.1c-8.4,0.2-16.1-7.4-15.9-15.9
		c1.6-34.5-3.4-70.3,2.1-104.1c-3.9-73.5-3.9-150.5,0-224C4.7,127.9,9.6,93.8,8,61C8,56.9,7.6,52.5,9.8,48.7 M24,56c0,32,0,64,0,96
		c32,0,64,0,96,0c0-32,0-64,0-96C88,56,56,56,24,56 M136,56c0,32,0,64,0,96c32,0,64,0,96,0c0-32,0-64,0-96C200,56,168,56,136,56
		 M24,168c0,32,0,64,0,96c32,0,64,0,96,0c0-32,0-64,0-96C88,168,56,168,24,168 M24,280c0,32,0,64,0,96c32,0,64,0,96,0
		c0-32,0-64,0-96C88,280,56,280,24,280 M24,392c0,32,0,64,0,96c32,0,64,0,96,0c0-32,0-64,0-96C88,392,56,392,24,392 M136,392
		c0,32,0,64,0,96c32,0,64,0,96,0c0-32,0-64,0-96C200,392,168,392,136,392 M248,392c0,32,0,64,0,96c32,0,64,0,96,0c0-32,0-64,0-96
		C312,392,280,392,248,392 M360,392c0,32,0,64,0,96c32,0,64,0,96,0c0-32,0-64,0-96C424,392,392,392,360,392z"/>
	<path class="st0" d="M45.2,64.2c26.4-3,23.6,37.6-2.1,30.9C27.6,90.6,29.1,66.6,45.2,64.2z"/>
	<path class="st0" d="M413.2,80.2c21.9-3.3,25.9,29.7,3.8,31.7C397.3,113.3,393.7,83.6,413.2,80.2z"/>
	<path class="st0" d="M461.2,80.2c24-3.2,24.9,33.7,0.8,31.6C444.1,109.8,443.4,83.1,461.2,80.2z"/>
	<path class="st0" d="M181.2,88.2c22.6-3.3,25.7,31.1,2.8,31.7C164.9,120.1,162.3,91.5,181.2,88.2z"/>
	<path class="st0" d="M93.2,112.2c24.1-3.3,25,33.8,0.7,31.6C76.1,141.7,75.4,115.2,93.2,112.2z"/>
	<path class="st0" d="M461.2,144.2c25.2-3.1,24.5,35.4-0.6,31.4C443.9,172.4,444.3,146.8,461.2,144.2z"/>
	<path class="st0" d="M437.2,168.2c23.3-3.3,25.3,32.5,1.7,31.7C420.4,198.8,418.9,171.3,437.2,168.2z"/>
	<path class="st0" d="M45.2,176.2c22.6-3.3,25.7,31.1,2.8,31.7C28.9,208.1,26.3,179.5,45.2,176.2z"/>
	<path class="st0" d="M413.2,192.2c25.1-3,24.5,35.4-0.6,31.4C395.9,220.5,396.3,194.7,413.2,192.2z"/>
	<path class="st0" d="M93.2,224.2c25.2-3.1,24.4,35.5-0.7,31.4C75.9,252.4,76.3,226.7,93.2,224.2z"/>
	<path class="st0" d="M301.1,256.2c22.7-3.4,25.7,31.2,2.8,31.7C284.9,288,282.3,259.5,301.1,256.2z"/>
	<path class="st0" d="M349.2,256.2c23.3-3.3,25.3,32.5,1.7,31.7C332.4,286.8,330.9,259.3,349.2,256.2z"/>
	<path class="st0" d="M461.2,256.2c24-3.3,24.9,33.8,0.8,31.6C444.1,285.7,443.4,259.2,461.2,256.2z"/>
	<path class="st0" d="M325.2,280.2c22.6-3.4,25.7,31.2,2.7,31.7C308.8,312,306.3,283.5,325.2,280.2z"/>
	<path class="st0" d="M437.3,280.2c24-3.2,24.9,33.7,0.8,31.6C420.1,309.8,419.4,283.1,437.3,280.2z"/>
	<path class="st0" d="M301.2,304.2c21.9-3.3,25.9,29.7,3.8,31.7C285.3,337.3,281.7,307.6,301.2,304.2z"/>
	<path class="st0" d="M349.1,304.2c21.9-3.4,26,29.7,3.9,31.7C333.4,337.3,329.6,307.7,349.1,304.2z"/>
	<path class="st0" d="M413.2,304.2c24-3.3,25,33.7,0.8,31.6C396.2,333.7,395.4,307.2,413.2,304.2z"/>
	<path class="st0" d="M69.2,312.2c21.8-3.3,25.8,29.7,3.8,31.7C53.3,345.3,49.7,315.6,69.2,312.2z"/>
	<path class="st0" d="M157.2,400.2c23.4-3.4,25.4,32.5,1.7,31.7C140.5,430.8,138.9,403.3,157.2,400.2z"/>
	<path class="st0" d="M205.2,400.2c25.7-3,24.1,36.4-1.3,31.2C187.7,427.6,188.7,402.7,205.2,400.2z"/>
	<path class="st0" d="M269.2,400.2c24.1-3.4,25,33.8,0.8,31.6C252.2,429.7,251.4,403.2,269.2,400.2z"/>
	<path class="st0" d="M317.2,400.2c23.3-3.3,25.3,32.5,1.7,31.7C300.5,430.8,298.9,403.3,317.2,400.2z"/>
	<path class="st0" d="M381.2,400.2c23.3-3.4,25.4,32.5,1.8,31.7C364.5,430.9,362.8,403.4,381.2,400.2z"/>
	<path class="st0" d="M69.2,424.2c23.4-3.4,25.3,32.5,1.7,31.7C52.5,454.8,50.9,427.3,69.2,424.2z"/>
	<path class="st0" d="M405.2,424.2c21.8-3.3,25.9,29.7,3.9,31.7C389.3,457.3,385.7,427.6,405.2,424.2z"/>
	<path class="st0" d="M157.2,448.2c22.6-3.4,25.7,31.2,2.8,31.7C140.9,480,138.3,451.5,157.2,448.2z"/>
	<path class="st0" d="M205.2,448.2c25.1-3.1,24.5,35.4-0.6,31.4C187.9,476.4,188.3,450.8,205.2,448.2z"/>
	<path class="st0" d="M269.2,448.2c22.6-3.4,25.7,31.1,2.8,31.7C252.9,480.1,250.3,451.5,269.2,448.2z"/>
	<path class="st0" d="M317.2,448.2c23.4-3.4,25.3,32.5,1.7,31.7C300.5,478.8,298.9,451.3,317.2,448.2z"/>
	<path class="st0" d="M429.2,448.2c21.9-3.3,25.9,29.8,3.8,31.7C413.3,481.2,409.7,451.6,429.2,448.2z"/>
</g>
</svg>
